X: 15143
T: Gigue À Pierre
R: reel
M: 4/4
K: Amajor
|:Acef feae|cAAc BEGB|Acef feae|cABd cA A/A/A:|
B3B BAGB|A/B/c B/c/d cAAc|B3B BAGB|A/B/c B/c/d cedc|
B3B BAGB|A/B/c B/c/d cAAc|B3B B2AB|c3B BAGB||

